!!!COM: Mozart
!!!OTL: Zehn Variationen in G, uber die Ariette 'Unser dummer Pobel meint' aus dem Singspiel 'Die Pilgrime von Mekka'
!!!Variation: Variation 9 b2
**function	**harm	**kern	**kern
*	*	*clefF4	*clefG2
*	*	*k[f#]	*k[f#]
*M2/2	*M2/2	*M2/2	*M2/2
*G:	*G:	*G:	*G:
=195	=195	=195	=195
1P	1V7b/ii	4GGG# 4GG#	4..E 4..B 4..d 4..e
.	.	4GG#	.
.	.	.	16e
.	.	4GGG# 4GG#	4..E 4..B 4..d 4..e
.	.	4GG#	.
.	.	.	16e
=196	=196	=196	=196
1P	1i/ii	2AAA 2AA	8EL 8A 8c [8e
.	.	.	(32eLL]
.	.	.	32f
.	.	.	32e
.	.	.	32d#JJJ
.	.	.	32eLLL
.	.	.	32fn
.	.	.	32f#
.	.	.	32gnJJ
.	.	.	32g#LL
.	.	.	32a
.	.	.	32b-
.	.	.	32bJJJ
.	.	2r	32ccnLLL
.	.	.	32cc#
.	.	.	32dd
.	.	.	32dd#JJ
.	.	.	32eeLL
.	.	.	32ff
.	.	.	32ff#
.	.	.	32ggJJJ
.	.	.	32gg#LLL
.	.	.	32aa
.	.	.	32bb-
.	.	.	32bbJJ
.	.	.	32cccLL
.	.	.	32ccc#
.	.	.	32ddd
.	.	.	32ddd#JJJ)
*	*	*clefG2	*
=197	=197	=197	=197
1P	1V7/ii	4e 4g# 4dd	8eee
.	.	.	4eee
.	.	4e 4g# 4dd	.
.	.	.	4eee
.	.	4e 4g# 4dd	.
.	.	.	4eee
.	.	4e 4g# 4dd	.
.	.	.	8eee
=198	=198	=198	=198
1P	1ii	4a 4cc	(8.eeeL
.	.	.	16cccJk
.	.	4r	32eeeLLL
.	.	.	32ccc
.	.	.	32eee
.	.	.	32cccJJ
.	.	.	32eeeLL
.	.	.	32ccc
.	.	.	32eee
.	.	.	32cccJJJ
.	.	2r	8aa)
.	.	.	8r
.	.	.	4r
*	*	*clefF4	*clefF4
=199	=199	=199	=199
1D	1V7b	4FFF# 4FF#	4..D 4..A 4..c 4..d
.	.	4FF#	.
.	.	.	16d
.	.	4FFF# 4FF#	4..D 4..A 4..c 4..d
.	.	4FF#	.
.	.	.	16d
=200	=200	=200	=200
1D	1I	2GGG 2GG	8DL 8G 8B [8d
.	.	.	(32dLL]
.	.	.	32e
.	.	.	32d
.	.	.	32c#JJJ
*	*	*	*clefG2
.	.	.	32dLLL
.	.	.	32e-
.	.	.	32e
.	.	.	32fJJ
.	.	.	32f#LL
.	.	.	32g
.	.	.	32g#
.	.	.	32aJJJ
.	.	2r	32b-LLL
.	.	.	32b
.	.	.	32cc
.	.	.	32cc#JJ
.	.	.	32ddLL
.	.	.	32ee-
.	.	.	32ee
.	.	.	32ffJJJ
.	.	.	32ff#LLL
.	.	.	32gg
.	.	.	32gg#
.	.	.	32aaJJ
.	.	.	32bb-LL
.	.	.	32bb
.	.	.	32ccc
.	.	.	32ccc#JJJ)
*	*	*clefG2	*
=201	=201	=201	=201
1D	1V7	4d 4f# 4cc	(8ddd'L
.	.	.	8ddd'
.	.	4d 4f# 4cc	8ddd'
.	.	.	8ddd'J
.	.	4d 4f# 4cc	8ddd'L
.	.	.	8ddd'
.	.	4d 4f# 4cc	8ddd'
.	.	.	8ddd'J)
=202	=202	=202	=202
1T	1I	4g 4b	(8.dddL
.	.	.	16ccc#Jk
.	.	4r	16cccLL
.	.	.	16bbJ
.	.	.	24bb-L
.	.	.	24aa
.	.	.	24aa-JJ
.	.	2r	8gg)
.	.	.	8r
.	.	.	4r
*-	*-	*-	*-
